X: 1007
T: Her Ne Dem Düşmen
C: Ahmet Avni Konuk
O: Turkey
F: http://compmusic.upf.edu/node/140
N: sipihr--kupe--duyek--her--ahmet_avni_konuk
N: makam= sipihr
N: form= kupe
N: usul= duyek = 8/4
M: 8/4
L: 1/16
K: C    
Q: 1/4=57
%%MIDI tuningsystem comma53
z4 a8 e4 ^f4 ^g4 a6z2  | z4 a8 _1/4b4 c'4 c'2b2 b4 a4  | \
w:  Her  ne  dem  *  düş  |  men  fi ti *  *  liy  | 
a2^g2 g8 ^f2e2 f4 e4 g2a2 _1/4b2c'2  | 
w:  *  *  le  o  *  meh  *  bağ  | 
_1/4b2a2 a2^g2 g2^f2 f2e2 f2g2 f2e2 e6z2  | \
w:  *  *  rım  *  *  *  ya *  kar    | 
z4 ^d8 ^1/4f4 e4 e2b2 b2a2 ^g2f2  | 
w:  Top  gi bi  *  *  tak_  | 
e4 d8 e4 c4 d4 c4 c2B2  | A4 A8 B4 c4 d4 e2f2 g2f2  | \
w:  *  ı  Si pih *  re   |  *  gül le i  *  â  | 
e2d2 c4 c2B2 A4 A2c2 B2A2 A6z2  | 
w:  *  *  hım  *  *  çı kar    | 
|


